hosting/assets/images/footer/yaspurLogo.svg

<svg width="137" height="31" viewBox="0 0 137 31" fill="none" xmlns="http://www.w3.org/2000/svg">
<path d="M73.8176 10.4265C69.1571 10.4265 69.0024 14.6504 69.0024 15.1173C69.0024 16.5623 69.7976 18.0518 70.9462 18.7187C71.6309 19.0967 72.2273 19.319 72.9341 19.5857C73.1329 19.6524 73.3758 19.7414 73.5967 19.8303C73.7513 19.897 73.928 19.9637 74.1047 20.0081C75.2312 20.4083 76.4019 20.8085 76.3798 22.1868C76.3798 22.876 75.9822 24.0097 74.5907 24.0097H74.5244H69.0024V26.9443H74.2814C74.3919 26.9443 74.4802 26.9443 74.5686 26.9443C76.2252 26.9443 77.4842 26.3885 78.3235 25.2769C79.2291 24.0987 79.3175 22.7203 79.3175 22.1868C79.3175 20.8752 78.6548 19.1189 77.197 18.452C76.7111 18.2296 76.1147 18.0073 75.4521 17.785C75.2312 17.7183 74.9883 17.6294 74.7232 17.5405L74.5686 17.4738C73.6409 17.1403 71.918 16.5178 71.9401 15.1173C71.9622 13.9168 72.6249 13.361 74.1268 13.361H79.3175V10.4487H74.2152C74.1047 10.4265 73.9501 10.4265 73.8176 10.4265Z"/>
<path d="M52.9891 10.4265H49.963L47.7543 18.7187L46.6057 23.1205C46.6057 23.1427 46.6057 23.1427 46.5836 23.1427C46.4069 23.6096 45.9651 23.9431 45.435 23.9431C44.9049 23.9431 44.4852 23.6096 44.2865 23.1427C44.2865 23.1205 44.2865 23.0983 44.2644 23.0761L43.0937 18.6965L40.8849 10.4043H37.8589L41.415 23.8097L41.3929 23.6763C41.901 25.477 43.4029 26.8109 45.2362 26.8554C45.2804 26.8776 45.3246 26.8776 45.3909 26.8776C45.435 26.8776 45.4792 26.8554 45.5455 26.8554C47.3788 26.7887 48.9028 25.477 49.3888 23.6763L49.3667 23.8097L52.9891 10.4265Z"/>
<path d="M63.5691 13.65C63.061 11.8493 61.5591 10.5377 59.7258 10.4487C59.6816 10.4487 59.6374 10.4265 59.5711 10.4265C59.527 10.4265 59.4828 10.4487 59.4165 10.4487C57.5832 10.5154 56.0813 11.8271 55.5732 13.6278L55.5953 13.5166L52.0171 26.9665H55.0431L56.1917 22.6092H62.9506L64.0992 26.9665H67.1252L63.547 13.5166L63.5691 13.65ZM56.9648 19.6969L57.2298 18.6298L58.4005 14.2058V14.1836C58.5993 13.7167 59.041 13.3833 59.5491 13.3833C60.0571 13.3833 60.4988 13.7167 60.6755 14.1836C60.6976 14.2058 60.6976 14.228 60.6976 14.2503L61.8683 18.6298L62.1554 19.6969H56.9648Z"/>
<path d="M89.2572 10.4709C89.1688 10.4709 86.6066 10.4709 84.9942 10.4709H83.7131H82.0786V26.9665H84.9942V21.3198C86.1649 20.9641 89.9419 19.6969 90.1407 19.6302C90.8475 19.3634 91.4439 19.1633 92.1286 18.7632C93.2772 18.0962 94.0723 16.6067 94.0723 15.1395C94.0944 14.6726 93.9398 10.4709 89.2572 10.4709ZM88.462 17.2737C88.462 17.2737 85.9661 17.9851 84.9942 18.2519V13.4055H88.9258C90.4057 13.4055 91.0905 13.939 91.1126 15.1395C91.1346 16.5623 89.478 16.8735 88.462 17.2737Z"/>
<path d="M108.783 10.4709H105.867V15.0283V20.7195C105.845 22.5202 104.476 23.9875 102.775 23.9875C101.14 23.9875 99.8151 22.6314 99.7047 20.9196V15.0283V10.4709H96.7891V20.4527C96.7891 20.475 96.7891 20.475 96.7891 20.4972C96.7891 20.5194 96.7891 20.5194 96.7891 20.5417C96.8112 22.8537 97.9597 24.8767 99.7047 25.9883C100.61 26.5663 101.67 26.8998 102.797 26.8998C103.923 26.8998 104.962 26.5663 105.867 25.9883C107.568 24.899 108.694 22.9649 108.783 20.7195C108.783 20.6528 108.783 20.5861 108.783 20.4972C108.783 20.4305 108.783 20.3416 108.783 20.2749V10.4709Z"/>
<path d="M121.108 26.9665H124.951L118.943 19.8303C119.275 19.7191 119.495 19.6302 119.54 19.6302C120.246 19.3634 120.865 19.1633 121.528 18.7632C122.676 18.0962 123.471 16.6068 123.471 15.1395C123.471 14.6504 123.317 10.4487 118.656 10.4487C118.568 10.4487 116.006 10.4487 114.393 10.4487H113.112H111.478V26.9442H114.393V21.3198C114.747 21.2086 115.299 21.0308 115.939 20.8084L121.108 26.9665ZM114.371 13.4055H118.303C119.783 13.4055 120.467 13.939 120.489 15.1395C120.511 16.5623 118.855 16.8513 117.839 17.2737C117.839 17.2737 115.365 17.9851 114.371 18.2519V13.4055Z"/>
<path d="M127.27 4.84644C127.16 4.84644 125.525 4.84644 125.525 4.84644V5.93576C125.525 5.93576 127.138 5.93576 127.27 5.93576C127.624 5.95799 127.8 6.11361 127.867 6.46931C127.403 6.6027 126.078 7.06955 126.011 7.09178C125.746 7.18071 125.525 7.26963 125.282 7.40302C124.863 7.64756 124.576 8.20334 124.576 8.73689C124.576 8.89251 124.642 10.4487 126.343 10.4487C126.365 10.4487 127.315 10.4487 127.911 10.4487H128.993V8.18111V6.86947C128.993 6.71385 128.993 6.62493 128.993 6.6027C128.971 4.91313 127.447 4.84644 127.27 4.84644ZM127.889 9.35936H126.453C125.901 9.35936 125.658 9.15928 125.658 8.73689C125.658 8.20334 126.254 8.11441 126.63 7.9588C126.63 7.9588 127.535 7.69202 127.889 7.6031V9.35936Z"/>
<path d="M130.296 6.55822C130.296 6.60268 130.296 6.93614 130.296 7.29184V10.4264H131.379V7.31407C131.379 6.95838 131.379 6.62491 131.379 6.58045C131.379 6.13582 131.622 5.98021 132.174 5.98021H132.66V4.86865C132.063 4.86865 132.086 4.86865 132.041 4.86865C130.363 4.84642 130.296 6.38037 130.296 6.55822Z"/>
<path d="M134.803 5.95809H136.084V4.84654H134.803V3.55713H133.72C133.72 3.55713 133.72 8.64806 133.72 8.73699C133.72 8.89261 133.786 10.4488 135.465 10.4488C135.509 10.4488 135.509 10.4488 136.084 10.4488V9.33723H135.576C135.045 9.33723 134.803 9.15938 134.78 8.73699C134.78 8.64806 134.803 5.95809 134.803 5.95809Z"/>
<path d="M26.0858 0H4.24087C1.89956 0 0 1.91188 0 4.26838V26.255C0 28.6115 1.89956 30.5234 4.24087 30.5234H13.1423C11.9495 30.2788 10.0279 29.8342 9.45361 29.5674C7.68658 28.7893 7.1123 27.3443 6.20669 25.8993C5.43362 24.6544 4.70472 20.9862 4.88142 19.4078C5.03604 17.9405 6.53801 13.9834 7.79702 13.0719C8.5701 12.4939 11.4857 12.0715 13.8049 11.827C14.7989 11.5157 14.9314 10.7821 14.9314 10.4486L14.6884 7.06951C14.6664 6.8472 14.7547 6.73604 14.9314 6.71381C15.1523 6.69158 15.2185 6.93612 15.2848 7.09174C15.2848 7.09174 15.5499 7.80314 15.7707 8.44784C15.7707 8.47007 15.8149 8.53676 15.837 8.559C15.9474 8.71461 16.1462 8.73685 16.1683 8.73685C16.3229 8.75908 16.4776 8.69238 16.5438 8.58123C16.5659 8.53676 16.6101 8.4923 16.6322 8.42561L16.8972 7.8476C17.0077 7.60306 17.2506 7.46967 17.5157 7.4919C17.5157 7.4919 17.5157 7.4919 17.5378 7.4919C17.5599 7.4919 17.5599 7.51413 17.5599 7.51413C17.8249 7.58082 18.0016 7.7809 18.0016 8.04768L18.0679 8.67015C18.0679 8.73685 18.09 8.78131 18.09 8.82577C18.1341 8.95916 18.2667 9.07031 18.3992 9.11477C18.4213 9.11477 18.6201 9.15924 18.7747 9.04808C18.7968 9.04808 18.863 8.95916 18.863 8.95916C19.3269 8.44784 19.8128 7.8476 19.8128 7.8476C19.9233 7.73644 20.0779 7.51413 20.2767 7.60306C20.4534 7.78091 20.4755 7.89206 20.3871 8.11437L18.9735 11.2045C18.863 11.5157 18.7305 12.2271 19.5478 12.8718C21.624 13.9167 24.2304 15.3395 24.7605 16.1621C25.5998 17.4515 25.6219 21.6976 25.2685 23.1204C24.893 24.6544 22.9051 27.8556 21.7566 28.7449C20.9172 29.3674 20.1883 30.0565 19.3269 30.5011H26.1079C28.4492 30.5011 30.3487 28.5893 30.3487 26.2328V4.26838C30.3267 1.91188 28.4271 0 26.0858 0Z"/>
</svg>

<svg width="137" height="31" fill="none" xmlns="http://www.w3.org/2000/svg"><path d="M73.818 10.427c-4.66 0-4.816 4.223-4.816 4.69 0 1.445.796 2.935 1.944 3.602.685.378 1.281.6 1.988.867.199.066.442.155.663.244a3.3 3.3 0 00.508.178c1.126.4 2.297.8 2.275 2.179 0 .689-.398 1.823-1.79 1.823h-5.588v2.934h5.567c1.656 0 2.915-.555 3.754-1.667.906-1.178.995-2.557.995-3.09 0-1.312-.663-3.068-2.121-3.735a18.34 18.34 0 00-1.745-.667c-.22-.067-.464-.156-.729-.244l-.154-.067c-.928-.334-2.651-.956-2.629-2.357.022-1.2.685-1.756 2.187-1.756h5.19v-2.912h-5.102c-.11-.022-.265-.022-.397-.022zm-20.828 0h-3.027l-2.209 8.292-1.148 4.401c0 .023 0 .023-.022.023-.177.467-.619.8-1.149.8s-.95-.333-1.149-.8c0-.023 0-.045-.022-.067l-1.17-4.38-2.21-8.292H37.86l3.556 13.406-.022-.134c.508 1.801 2.01 3.135 3.843 3.18.044.022.089.022.155.022.044 0 .088-.023.154-.023 1.834-.066 3.358-1.378 3.844-3.179l-.022.134 3.622-13.383zm10.58 3.223c-.509-1.8-2.01-3.112-3.844-3.201-.044 0-.089-.022-.155-.022-.044 0-.088.022-.154.022-1.834.066-3.336 1.378-3.844 3.179l.022-.111-3.578 13.45h3.026l1.149-4.358h6.759l1.148 4.357h3.026l-3.578-13.45.022.134zm-6.605 6.047l.265-1.067 1.17-4.424v-.022c.2-.467.641-.8 1.15-.8.507 0 .949.333 1.126.8.022.022.022.044.022.066l1.17 4.38.287 1.067h-5.19zm32.292-9.227H82.08v16.496h2.915V21.32c1.17-.356 4.948-1.623 5.147-1.69.706-.267 1.303-.467 1.988-.867 1.148-.667 1.943-2.156 1.943-3.624.022-.466-.132-4.668-4.815-4.668zm-.795 6.804s-2.496.711-3.468.978v-4.846h3.932c1.48 0 2.165.533 2.187 1.733.022 1.423-1.635 1.735-2.651 2.135zm20.321-6.804h-2.916v10.25c-.022 1.801-1.391 3.268-3.092 3.268-1.635 0-2.96-1.356-3.07-3.067V10.47h-2.916v10.071c.022 2.312 1.17 4.335 2.916 5.446a5.656 5.656 0 006.162 0c1.701-1.089 2.827-3.023 2.916-5.268V10.47zm12.325 16.496h3.843l-6.008-7.136c.332-.11.552-.2.597-.2.706-.267 1.325-.467 1.988-.867 1.148-.667 1.943-2.156 1.943-3.624 0-.489-.154-4.69-4.815-4.69h-7.178v16.495h2.915V21.32c.354-.111.906-.29 1.546-.512l5.169 6.159zm-6.737-13.56h3.932c1.48 0 2.164.533 2.186 1.733.022 1.423-1.634 1.712-2.65 2.135 0 0-2.474.711-3.468.978v-4.846zm12.899-8.56h-1.745v1.09h1.745c.354.022.53.178.597.533-.464.134-1.789.6-1.856.623a4.238 4.238 0 00-.729.311c-.419.245-.706.8-.706 1.334 0 .156.066 1.712 1.767 1.712h2.65V6.603c-.022-1.69-1.546-1.757-1.723-1.757zm.619 4.513h-1.436c-.552 0-.795-.2-.795-.622 0-.534.596-.623.972-.778 0 0 .905-.267 1.259-.356V9.36zm2.407-2.801v3.868h1.083V6.58c0-.444.243-.6.795-.6h.486V4.87h-.619c-1.678-.023-1.745 1.511-1.745 1.69zm4.507-.6h1.281V4.847h-1.281v-1.29h-1.083v5.18c0 .156.066 1.712 1.745 1.712h.619V9.337h-.508c-.531 0-.773-.178-.796-.6l.023-2.779zM26.086 0H4.24C1.9 0 0 1.912 0 4.268v21.987c0 2.357 1.9 4.268 4.24 4.268h8.902c-1.192-.244-3.114-.689-3.688-.956-1.767-.778-2.342-2.223-3.247-3.668-.773-1.245-1.502-4.913-1.326-6.491.155-1.468 1.657-5.425 2.916-6.336.773-.578 3.689-1 6.008-1.245.994-.311 1.126-1.045 1.126-1.378l-.243-3.38c-.022-.222.067-.333.243-.355.221-.022.288.222.354.378 0 0 .265.711.486 1.356 0 .022.044.089.066.111a.47.47 0 00.331.178c.155.022.31-.045.376-.156.022-.044.066-.089.088-.155l.265-.578a.608.608 0 01.619-.356h.022c.022 0 .022.022.022.022.265.067.442.267.442.534l.066.622c0 .067.022.111.022.156a.5.5 0 00.31.289c.021 0 .22.044.375-.067.022 0 .088-.089.088-.089.464-.511.95-1.111.95-1.111.11-.112.265-.334.464-.245.176.178.198.29.11.511l-1.413 3.09c-.111.312-.244 1.023.574 1.668 2.076 1.045 4.682 2.467 5.213 3.29.839 1.29.86 5.536.508 6.958-.376 1.534-2.364 4.736-3.512 5.625-.84.622-1.569 1.311-2.43 1.756h6.78c2.342 0 4.242-1.912 4.242-4.268V4.268C30.327 1.912 28.427 0 26.086 0z"/></svg>
